src/assets/icons/multicolor/users.multicolor.svg

<svg width="24" height="24" fill="none">
  <path fill="#093971" stroke="#093971" stroke-width=".25" d="M12 15.875c.6904 0 1.25-.5596 1.25-1.25 0-.6903-.5596-1.25-1.25-1.25-.6903 0-1.25.5597-1.25 1.25 0 .6904.5597 1.25 1.25 1.25zm0-2c.392 0 .7188.3322.7188.75s-.3268.75-.7188.75-.7188-.3322-.7188-.75.3268-.75.7188-.75zM9.68011 19.7587l.00941.0434.03468.0277c.586.4686 1.4398.6702 2.2617.6702.8921 0 1.7848-.2376 2.2931-.6729l.032-.0273.0089-.0412c.0353-.1627.0551-.3317.0551-.5059 0-1.313-1.0632-2.3777-2.375-2.3777s-2.375 1.0647-2.375 2.3777c0 .1742.01984.3432.05511.506zm4.16369-.506c0 .0858-.0064.1732-.019.261-.4047.2819-1.0898.4631-1.8389.4631-.7269 0-1.3752-.1737-1.8115-.4685-.0121-.086-.0182-.1715-.0182-.2556 0-1.0231.8279-1.8545 1.8438-1.8545 1.0159 0 1.8438.8314 1.8438 1.8545zM8.625 7.375c.69036 0 1.25-.55964 1.25-1.25 0-.69035-.55964-1.25-1.25-1.25-.69034 0-1.25.55965-1.25 1.25 0 .69036.55966 1.25 1.25 1.25zm0-2c.39197 0 .71875.33224.71875.75s-.32678.75-.71875.75c-.39196 0-.71875-.33224-.71875-.75s.32679-.75.71875-.75zM6.30511 11.3837l.00941.0434.03468.0277c.58603.4686 1.43979.6702 2.26171.6702.89206 0 1.78479-.2376 2.29309-.6729l.032-.0273.0089-.0412c.0353-.1627.0551-.3317.0551-.5059C11 9.56467 9.93682 8.5 8.625 8.5S6.25 9.56467 6.25 10.8777c0 .1742.01984.3432.05511.506zm4.16369-.506c0 .0858-.0064.1732-.019.261-.4047.2819-1.08984.4631-1.83889.4631-.72692 0-1.37517-.1737-1.81147-.4685-.01211-.086-.01819-.1715-.01819-.2556 0-1.0231.82786-1.85448 1.84375-1.85448 1.01591 0 1.8438.83138 1.8438 1.85448zM13.0551 11.3837l.0094.0434.0347.0277c.586.4686 1.4398.6702 2.2617.6702.8921 0 1.7848-.2376 2.2931-.6729l.032-.0273.0089-.0412c.0353-.1627.0551-.3317.0551-.5059 0-1.31303-1.0632-2.3777-2.375-2.3777S13 9.56467 13 10.8777c0 .1742.0198.3432.0551.506zm4.1637-.506c0 .0858-.0064.1732-.019.261-.4047.2819-1.0898.4631-1.8389.4631-.7269 0-1.3752-.1737-1.8115-.4685-.0121-.086-.0182-.1715-.0182-.2556 0-1.0231.8279-1.85448 1.8438-1.85448 1.0159 0 1.8438.83138 1.8438 1.85448zM15.375 7.375c.6904 0 1.25-.55964 1.25-1.25 0-.69035-.5596-1.25-1.25-1.25-.6903 0-1.25.55965-1.25 1.25 0 .69036.5597 1.25 1.25 1.25zm0-2c.392 0 .7188.33224.7188.75s-.3268.75-.7188.75-.7188-.33224-.7188-.75.3268-.75.7188-.75z"/>
  <path fill="#093971" d="M12 0C5.37262 0 0 5.37259 0 12c0 6.6274 5.37262 12 12 12 6.6274 0 12-5.3726 12-12 0-6.62741-5.3726-12-12-12zm0 23.25C5.79675 23.25.75 18.2033.75 12 .75 5.79675 5.79675.75 12 .75 18.2033.75 23.25 5.79675 23.25 12c0 6.2033-5.0467 11.25-11.25 11.25z"/>
</svg>

<svg width="24" height="24" viewBox="0 0 24 24" fill="none" xmlns="http://www.w3.org/2000/svg">
<path d="M12 15.875C12.6904 15.875 13.25 15.3154 13.25 14.625C13.25 13.9347 12.6904 13.375 12 13.375C11.3097 13.375 10.75 13.9347 10.75 14.625C10.75 15.3154 11.3097 15.875 12 15.875ZM12 13.875C12.392 13.875 12.7188 14.2072 12.7188 14.625C12.7188 15.0428 12.392 15.375 12 15.375C11.608 15.375 11.2812 15.0428 11.2812 14.625C11.2812 14.2072 11.608 13.875 12 13.875Z" fill="#093971" stroke="#093971" stroke-width="0.25"/>
<path d="M9.68011 19.7587L9.68952 19.8021L9.7242 19.8298C10.3102 20.2984 11.164 20.5 11.9859 20.5C12.878 20.5 13.7707 20.2624 14.279 19.8271L14.311 19.7998L14.3199 19.7586C14.3552 19.5959 14.375 19.4269 14.375 19.2527C14.375 17.9397 13.3118 16.875 12 16.875C10.6882 16.875 9.625 17.9397 9.625 19.2527C9.625 19.4269 9.64484 19.5959 9.68011 19.7587ZM13.8438 19.2527C13.8438 19.3385 13.8374 19.4259 13.8248 19.5137C13.4201 19.7956 12.735 19.9768 11.9859 19.9768C11.259 19.9768 10.6107 19.8031 10.1744 19.5083C10.1623 19.4223 10.1562 19.3368 10.1562 19.2527C10.1562 18.2296 10.9841 17.3982 12 17.3982C13.0159 17.3982 13.8438 18.2296 13.8438 19.2527Z" fill="#093971" stroke="#093971" stroke-width="0.25"/>
<path d="M8.625 7.375C9.31536 7.375 9.875 6.81536 9.875 6.125C9.875 5.43465 9.31536 4.875 8.625 4.875C7.93466 4.875 7.375 5.43465 7.375 6.125C7.375 6.81536 7.93466 7.375 8.625 7.375ZM8.625 5.375C9.01697 5.375 9.34375 5.70724 9.34375 6.125C9.34375 6.54276 9.01697 6.875 8.625 6.875C8.23304 6.875 7.90625 6.54276 7.90625 6.125C7.90625 5.70724 8.23304 5.375 8.625 5.375Z" fill="#093971" stroke="#093971" stroke-width="0.25"/>
<path d="M6.30511 11.3837L6.31452 11.4271L6.3492 11.4548C6.93523 11.9234 7.78899 12.125 8.61091 12.125C9.50297 12.125 10.3957 11.8874 10.904 11.4521L10.936 11.4248L10.9449 11.3836C10.9802 11.2209 11 11.0519 11 10.8777C11 9.56467 9.93682 8.5 8.625 8.5C7.31318 8.5 6.25 9.56467 6.25 10.8777C6.25 11.0519 6.26984 11.2209 6.30511 11.3837ZM10.4688 10.8777C10.4688 10.9635 10.4624 11.0509 10.4498 11.1387C10.0451 11.4206 9.35996 11.6018 8.61091 11.6018C7.88399 11.6018 7.23574 11.4281 6.79944 11.1333C6.78733 11.0473 6.78125 10.9618 6.78125 10.8777C6.78125 9.8546 7.60911 9.02322 8.625 9.02322C9.64091 9.02322 10.4688 9.8546 10.4688 10.8777Z" fill="#093971" stroke="#093971" stroke-width="0.25"/>
<path d="M13.0551 11.3837L13.0645 11.4271L13.0992 11.4548C13.6852 11.9234 14.539 12.125 15.3609 12.125C16.253 12.125 17.1457 11.8874 17.654 11.4521L17.686 11.4248L17.6949 11.3836C17.7302 11.2209 17.75 11.0519 17.75 10.8777C17.75 9.56467 16.6868 8.5 15.375 8.5C14.0632 8.5 13 9.56467 13 10.8777C13 11.0519 13.0198 11.2209 13.0551 11.3837ZM17.2188 10.8777C17.2188 10.9635 17.2124 11.0509 17.1998 11.1387C16.7951 11.4206 16.11 11.6018 15.3609 11.6018C14.634 11.6018 13.9857 11.4281 13.5494 11.1333C13.5373 11.0473 13.5312 10.9618 13.5312 10.8777C13.5312 9.8546 14.3591 9.02322 15.375 9.02322C16.3909 9.02322 17.2188 9.8546 17.2188 10.8777Z" fill="#093971" stroke="#093971" stroke-width="0.25"/>
<path d="M15.375 7.375C16.0654 7.375 16.625 6.81536 16.625 6.125C16.625 5.43465 16.0654 4.875 15.375 4.875C14.6847 4.875 14.125 5.43465 14.125 6.125C14.125 6.81536 14.6847 7.375 15.375 7.375ZM15.375 5.375C15.767 5.375 16.0938 5.70724 16.0938 6.125C16.0938 6.54276 15.767 6.875 15.375 6.875C14.983 6.875 14.6562 6.54276 14.6562 6.125C14.6562 5.70724 14.983 5.375 15.375 5.375Z" fill="#093971" stroke="#093971" stroke-width="0.25"/>
<path d="M12 0C5.37262 0 0 5.37259 0 12C0 18.6274 5.37262 24 12 24C18.6274 24 24 18.6274 24 12C24 5.37259 18.6274 0 12 0ZM12 23.25C5.79675 23.25 0.75 18.2033 0.75 12C0.75 5.79675 5.79675 0.75 12 0.75C18.2033 0.75 23.25 5.79675 23.25 12C23.25 18.2033 18.2033 23.25 12 23.25Z" fill="#093971"/>
</svg>
